X:1
T:Jean
T:Jean
C:Rod McKuen
Z:All Rights Reserved
L:1/8
M:3/4
K:Eb
V:1 treble nm="Piano" snm="Pno."
%%MIDI program 0
V:1
"Eb" E6 |"Gm" B6 |"Ab" c3 B A2 |"Bb7" B6 |"Eb" z2 z2 EE |"Cm" E3 C E2 |"Fm7" E2 B,4- | %7
w: Jean,|Jean,|ros- es are|red,|all the|leaves have gone|green: *|
w: |||||||
"Bb7" B,4 GB |"Eb" c4 BG |"Eb7" B4 GE |"Ab" F2 E3 C |"Eb" E6 |"Fm7" z2 z F (3GEE |"Bb11" E2 E4 | %14
w: * and the|clouds are so|low, you can|touch them and|so|come out to the|mead- ow,|
w: |||||||
"Eb" E6 |"Fm7" cB GF"Bb7" (3ECB, |"Eb" E6 |"Gm" B4 B2 |"Ab" c2 B3 A |"Bb7" B6 |"Eb" z2 z E (3EEE | %21
w: Jean.||Jean,|Jean you're|young and a-|live;|come out of your|
w: |||||||
"Cm" E4 E2 |"Fm7" C2 B,4- |"Bb7" B,4 B2 |"Eb" c2 B3 G |"Eb7" B4 GE |"Ab" F2 E3 C |"Eb" E6 | %28
w: half dreamed|dream; *|* and|run, if you|will, to the|top of the|hill.|
w: |||||||
"Fm7" z2 z2 (3GEE |"Bb9" F4"Bb7sus4" EF |"Eb" E6- |"Ab" E4"Eb7" EE |"Ab" c4 cd |"Adim" e2 d3 c | %34
w: O- pen your|arms, bon- nie|Jean.|* Till the|sheep in the|val- ley come|
w: ||||||
"Eb7" d4 B2 |"Eb7" B4 EE |"Ab6" c4 cd |"Adim" e2 d3 c |"Ebmaj7" d4 BG |"Eb7" B4 de |"Ab" c4 cd | %41
w: home my|way, til' the|stars fall a-|round me and|find me a-|lone; when the|sun comes a|
w: |||||||
"Ab6" e2 d4 |"Gm7" z2 z B"Cm7" cB |"B7" _G2"Bb7" F4 |"Eb" E6 |"Gm" B6 |"Ab" c3 B A2 |"Bb7" B6 | %48
w: sing- in'|I'll still be|wait in'|Jean,|Jean,|ros- es are|red,|
w: |||||||
"Eb" z2 z2 EE |"Cm" E3 C E2 |"Fm7" E2 B,4- |"Bb7" B,4 GB |"Eb6" c4 BG |"Eb7" B4 GE |"Ab6" F2 E3 C | %55
w: all the|leaves have gone|green: *|* And the|hills are a-|blaze with the|moon's yel- low|
w: |||||||
"Eb" E6 |"Fm7" z2 z F (3GEE |"Bb7" F4 EF |"Eb" E6 |"Eb" E6 |"Gm" B4 B2 |"Ab" c2 B3 A |"Bb7" B6 | %63
w: haze,|Come in- to my|arms bon- nie|Jean.|Jean,|Jean you're|young and a-|live;|
w: ||||||||
"Eb" z2 z E (3EEE |"Cm" E4 E2 |"Fm7" C2 B,4- |"Bb7" B,4 B2 |"Eb" c2 B3 G |"Eb7" B4 GE | %69
w: come out of your|half dreamed|dream; *|* and|run, if you|will, to the|
w: ||||||
"Ab" F2 E3 C |"Eb" E6 |"Fm7" z2 z2 (3GEE |"Bb9" F4"Bb7sus4" EF |"Eb" E6- | !fermata!E4 z2 |] %75
w: top of the|hill.|O- pen your|arms, bon- nie|Jean.||
w: ||||||

